file/intel.svg

<svg clip-rule="evenodd" fill-rule="evenodd" stroke-linejoin="round" stroke-miterlimit="1.41421" viewBox="0 0 560 400" xmlns="http://www.w3.org/2000/svg"><g fill="#0071c5" fill-rule="nonzero" transform="matrix(3.84536 0 0 3.84536 127.751 98.1366)"><path d="m78.676 15.258c-3.696-18.048-38.738-19.192-61.324-5.442v1.52c22.562-11.602 54.566-11.527 57.48 5.094.977 5.5-2.121 11.23-7.656 14.53v4.313c6.656-2.441 13.484-10.34 11.5-20.015m-41.056 31.59c-15.58 1.437-31.823-.828-34.1-13.004-1.114-6.004 1.625-12.371 5.253-16.328v-2.114c-6.535 5.73-10.078 12.985-8.035 21.551 2.606 10.992 16.543 17.215 37.82 15.149 8.422-.817 19.438-3.528 27.102-7.735v-5.976c-6.957 4.144-18.457 7.57-28.039 8.457"/><path d="m64.398 12.633h-4.085v18.195c0 2.133 1.03 3.988 4.085 4.285zm-48.652 6.644h-4.094l-.004 11.887c0 2.14 1.036 3.992 4.098 4.285zm-4.094-2.218h4.082v-3.875h-4.082zm28.563 18.203c-3.305 0-4.703-2.301-4.703-4.567v-15.785h4.047v4.363h3.05v3.274h-3.05v7.898c0 .926.437 1.438 1.402 1.438h1.648v3.379zm10.745-12.907c-1.386 0-2.448.715-2.901 1.676-.262.578-.36 1.031-.387 1.742h6.238c-.078-1.742-.867-3.418-2.95-3.418m-3.288 6.18c0 2.07 1.293 3.598 3.586 3.598 1.797 0 2.683-.5 3.722-1.528l2.504 2.387c-1.605 1.586-3.289 2.547-6.254 2.547-3.878 0-7.59-2.113-7.59-8.281 0-5.274 3.247-8.254 7.5-8.254 4.325 0 6.81 3.488 6.81 8.07v1.461h-10.279m-20.925-5.988c1.188 0 1.684.586 1.684 1.539v11.2h4.05v-11.225c0-2.273-1.21-4.78-4.77-4.78l-8.366-.005v16.008h4.05v-12.737z"/></g></svg>

<?xml version="1.0" encoding="UTF-8" standalone="no"?>
<!DOCTYPE svg PUBLIC "-//W3C//DTD SVG 1.1//EN" "http://www.w3.org/Graphics/SVG/1.1/DTD/svg11.dtd">
<svg width="100%" height="100%" viewBox="0 0 560 400" version="1.1" xmlns="http://www.w3.org/2000/svg" xmlns:xlink="http://www.w3.org/1999/xlink" xml:space="preserve" xmlns:serif="http://www.serif.com/" style="fill-rule:evenodd;clip-rule:evenodd;stroke-linejoin:round;stroke-miterlimit:1.41421;">
    <g transform="matrix(3.84536,0,0,3.84536,127.751,98.1366)">
        <path d="M78.676,15.258C74.98,-2.79 39.938,-3.934 17.352,9.816L17.352,11.336C39.914,-0.266 71.918,-0.191 74.832,16.43C75.809,21.93 72.711,27.66 67.176,30.96L67.176,35.273C73.832,32.832 80.66,24.933 78.676,15.258M37.62,46.848C22.04,48.285 5.797,46.02 3.52,33.844C2.406,27.84 5.145,21.473 8.773,17.516L8.773,15.402C2.238,21.132 -1.305,28.387 0.738,36.953C3.344,47.945 17.281,54.168 38.558,52.102C46.98,51.285 57.996,48.574 65.66,44.367L65.66,38.391C58.703,42.535 47.203,45.961 37.621,46.848" style="fill:rgb(0,113,197);fill-rule:nonzero;"/>
        <path d="M64.398,12.633L60.313,12.633L60.313,30.828C60.313,32.961 61.343,34.816 64.398,35.113L64.398,12.633ZM15.746,19.277L11.652,19.277L11.648,31.164C11.648,33.304 12.684,35.156 15.746,35.449L15.746,19.277ZM11.652,17.059L15.734,17.059L15.734,13.184L11.652,13.184L11.652,17.059ZM40.215,35.262C36.91,35.262 35.512,32.961 35.512,30.695L35.512,14.91L39.559,14.91L39.559,19.273L42.609,19.273L42.609,22.547L39.559,22.547L39.559,30.445C39.559,31.371 39.996,31.883 40.961,31.883L42.609,31.883L42.609,35.262L40.215,35.262M50.96,22.355C49.574,22.355 48.512,23.07 48.059,24.031C47.797,24.609 47.699,25.062 47.672,25.773L53.91,25.773C53.832,24.031 53.043,22.355 50.96,22.355M47.672,28.535C47.672,30.605 48.965,32.133 51.258,32.133C53.055,32.133 53.941,31.633 54.98,30.605L57.484,32.992C55.879,34.578 54.195,35.539 51.23,35.539C47.352,35.539 43.64,33.426 43.64,27.258C43.64,21.984 46.887,19.004 51.14,19.004C55.465,19.004 57.95,22.492 57.95,27.074L57.95,28.535L47.671,28.535M26.746,22.547C27.934,22.547 28.43,23.133 28.43,24.086L28.43,35.286L32.48,35.286L32.48,24.061C32.48,21.788 31.27,19.281 27.71,19.281L19.344,19.276L19.344,35.284L23.394,35.284L23.394,22.547L26.746,22.547Z" style="fill:rgb(0,113,197);fill-rule:nonzero;"/>
    </g>
</svg>
